static/fa/svgs/solid/gifts.svg

<svg xmlns="http://www.w3.org/2000/svg" viewBox="0 0 640 512"><!--! Font Awesome Free 6.1.1 by @fontawesome - https://fontawesome.com License - https://fontawesome.com/license/free (Icons: CC BY 4.0, Fonts: SIL OFL 1.1, Code: MIT License) Copyright 2022 Fonticons, Inc.--><path d="m192.5 55.09 25.4-18.5c10.7-7.8 25.7-5.43 33.5 5.29 7.8 10.72 5.4 25.73-5.3 33.53L217.8 95.1H240c16.9 0 31.7 9.6 40.3 22.8-23 17.8-38.4 44.2-40.1 75.2-27.7 7.9-48.2 33-48.2 62.9v224c0 11.7 3.1 22.6 8.6 32H48c-26.51 0-48-21.5-48-48V144c0-26.5 21.49-48 48-48h22.2L41.88 75.41c-10.72-7.8-13.09-22.81-5.29-33.53 7.8-10.72 22.81-13.09 33.53-5.29l27.43 19.95-8.32-24.95C85.04 19.01 91.84 5.423 104.4 1.232c11.7-4.192 26.2 2.604 30.4 15.178l9.9 29.76 10.7-30.18C159.8 3.493 173.5-3.048 186 1.377c12.5 4.425 19 18.143 14.6 30.633l-8.1 23.08zm151.7 72.01c22.4 0 43.6 11.3 57.3 29.1l30.5 39.6 30.5-39.6c13.7-17.8 34.9-29.1 57.3-29.1 39.7 0 72.2 33 72.2 72 0 9.3-1.4 17.4-4.1 24h4.1c26.5 0 48 22.4 48 48V352H448v-96.9h-32V352H224v-80.9c0-25.6 21.5-48 48-48h4.1c-2.7-6.6-4.1-14.7-4.1-24 0-39 32.5-72 72.2-72zm19.3 58.4c-4.6-6-11.8-10.4-19.3-10.4-13.4 0-24.2 11.8-24.2 24 0 14.2 10.7 24 24 24h49.1l-29.6-37.6zm156.3-10.4c-7.5 0-14.7 4.4-19.3 10.4l-29.6 37.6H520c13.3 0 24-9.8 24-24 0-12.2-10.8-24-24.2-24zM224 464v-80h192v128H272c-26.5 0-48-21.5-48-48zm224 48V384h192v80c0 26.5-21.5 48-48 48H448z"/></svg>

<svg xmlns="http://www.w3.org/2000/svg" viewBox="0 0 640 512"><!--! Font Awesome Free 6.1.1 by @fontawesome - https://fontawesome.com License - https://fontawesome.com/license/free (Icons: CC BY 4.0, Fonts: SIL OFL 1.1, Code: MIT License) Copyright 2022 Fonticons, Inc. --><path d="M192.5 55.09L217.9 36.59C228.6 28.79 243.6 31.16 251.4 41.88C259.2 52.6 256.8 67.61 246.1 75.41L217.8 95.1H240C256.9 95.1 271.7 104.7 280.3 117.9C257.3 135.7 241.9 162.1 240.2 193.1C212.5 201 192 226.1 192 256V480C192 491.7 195.1 502.6 200.6 512H48C21.49 512 0 490.5 0 464V144C0 117.5 21.49 96 48 96H70.2L41.88 75.41C31.16 67.61 28.79 52.6 36.59 41.88C44.39 31.16 59.4 28.79 70.12 36.59L97.55 56.54L89.23 31.59C85.04 19.01 91.84 5.423 104.4 1.232C116.1-2.96 130.6 3.836 134.8 16.41L144.7 46.17L155.4 15.99C159.8 3.493 173.5-3.048 186 1.377C198.5 5.802 205 19.52 200.6 32.01L192.5 55.09zM344.2 127.1C366.6 127.1 387.8 138.4 401.5 156.2L432 195.8L462.5 156.2C476.2 138.4 497.4 127.1 519.8 127.1C559.5 127.1 592 160.1 592 199.1C592 208.4 590.6 216.5 587.9 223.1H592C618.5 223.1 640 245.5 640 271.1V352H448V255.1H416V352H224V271.1C224 245.5 245.5 223.1 272 223.1H276.1C273.4 216.5 272 208.4 272 199.1C272 160.1 304.5 127.1 344.2 127.1H344.2zM363.5 185.5C358.9 179.5 351.7 175.1 344.2 175.1C330.8 175.1 320 186.9 320 199.1C320 213.3 330.7 223.1 344 223.1H393.1L363.5 185.5zM519.8 175.1C512.3 175.1 505.1 179.5 500.5 185.5L470.9 223.1H520C533.3 223.1 544 213.3 544 199.1C544 186.9 533.2 175.1 519.8 175.1H519.8zM224 464V384H416V512H272C245.5 512 224 490.5 224 464zM448 512V384H640V464C640 490.5 618.5 512 592 512H448z"/></svg>
